X: 179
T:Fowler,The. JC.178
M:2/4
L:1/8
Q:180
S:John Clare,Poet,Helpstone (1793-1864)
R:Air
O:England
A:Northamptonshire
N:
Z:vmp.P. Headford
K:C
e/d/|"$"cc d/c/B/c/|ded d/B/|G>Gg>g|edc e|!
d/c/B/c/ d/c/B/c/|dedz/d/|g>gd>d|BAG G/B/|!
dd e/d/c/d/|edc g|{g}BB d/c/B/c/|ded c/d/|!
e>e f/e/d/e/|fga f/d/|B>B c/B/A/B/|cd/B/ c "~"e/d/|]
W:Song text exists. See Deacon.|
